svgs/duotone/inbox-out.svg

<svg xmlns="http://www.w3.org/2000/svg" viewBox="0 0 512 512"><!-- Font Awesome Pro 6.0.0-alpha2 by @fontawesome - https://fontawesome.com License - https://fontawesome.com/license (Commercial License) --><defs><style>.fa-secondary{opacity:.4}</style></defs><path d="M480 320H384L352 384H160L128 320H32C14.326 320 0 334.328 0 352V464C0 490.508 21.49 512 48 512H464C490.508 512 512 490.508 512 464V352C512 334.328 497.672 320 480 320Z" class="fa-secondary"/><path d="M137.375 150.625C124.875 138.125 124.875 117.875 137.375 105.375L233.375 9.375C245.875 -3.125 266.125 -3.125 278.625 9.375L374.625 105.375C387.125 117.875 387.125 138.125 374.625 150.625C368.375 156.875 360.187 160 352 160S335.625 156.875 329.375 150.625L288 109.25V288C288 305.688 273.687 320 256 320S224 305.688 224 288V109.25L182.625 150.625C170.125 163.125 149.875 163.125 137.375 150.625Z" class="fa-primary"/></svg>

<svg xmlns="http://www.w3.org/2000/svg" viewBox="0 0 512 512"><!--! Font Awesome Pro 6.3.0 by @fontawesome - https://fontawesome.com License - https://fontawesome.com/license (Commercial License) Copyright 2023 Fonticons, Inc. --><defs><style>.fa-secondary{opacity:.4}</style></defs><path class="fa-primary" d="M137.4 150.6c-12.5-12.5-12.5-32.75 0-45.25l96-96c12.5-12.5 32.75-12.5 45.25 0l96 96c12.5 12.5 12.5 32.75 0 45.25C368.4 156.9 360.2 160 352 160s-16.38-3.125-22.62-9.375L288 109.3V288c0 17.69-14.31 32-32 32S224 305.7 224 288V109.3L182.6 150.6C170.1 163.1 149.9 163.1 137.4 150.6z"/><path class="fa-secondary" d="M480 320h-96L352 384H160l-32-64H32c-17.67 0-32 14.33-32 32v112C0 490.5 21.49 512 48 512h416c26.51 0 48-21.49 48-48V352C512 334.3 497.7 320 480 320z"/></svg>
